Newaita-dark/apps/48/plasmagik.svg

<svg height="48pt" viewBox="0 0 48 48" width="48pt" xmlns="http://www.w3.org/2000/svg" xmlns:xlink="http://www.w3.org/1999/xlink"><linearGradient id="a"><stop offset="0" stop-opacity=".313725"/><stop offset=".222222" stop-opacity=".27451"/><stop offset="1" stop-opacity="0"/></linearGradient><radialGradient id="b" cx="450.908936" cy="189.579361" gradientTransform="matrix(.00000026 -.117199 -.210958 -.00000015 51.900497 95.889139)" gradientUnits="userSpaceOnUse" r="21.166656" xlink:href="#a"/><radialGradient id="c" cx="450.908936" cy="189.579361" gradientTransform="matrix(-.00000026 .117199 .210958 .00000015 -27.093432 -10.795078)" gradientUnits="userSpaceOnUse" r="21.166656" xlink:href="#a"/><radialGradient id="d" cx="450.908936" cy="189.579361" gradientTransform="matrix(-.00000026 -.117199 .210958 -.00000015 -27.093432 95.889139)" gradientUnits="userSpaceOnUse" r="21.166656" xlink:href="#a"/><radialGradient id="e" cx="450.908936" cy="189.579361" gradientTransform="matrix(.00000026 .117199 -.210958 .00000015 51.900494 -10.795079)" gradientUnits="userSpaceOnUse" r="21.166656" xlink:href="#a"/><radialGradient id="f" cx="450.908936" cy="189.579361" gradientTransform="matrix(.00000026 -.117199 -.210958 -.00000015 74.722982 95.889139)" gradientUnits="userSpaceOnUse" r="21.166656" xlink:href="#a"/><radialGradient id="g" cx="450.908936" cy="189.579361" gradientTransform="matrix(-.00000026 .117199 .210958 .00000015 -4.270947 -10.795078)" gradientUnits="userSpaceOnUse" r="21.166656" xlink:href="#a"/><radialGradient id="h" cx="450.908936" cy="189.579361" gradientTransform="matrix(-.00000026 -.117199 .210958 -.00000015 -4.270947 95.889139)" gradientUnits="userSpaceOnUse" r="21.166656" xlink:href="#a"/><radialGradient id="i" cx="450.908936" cy="189.579361" gradientTransform="matrix(.00000026 .117199 -.210958 .00000015 74.72298 -10.795079)" gradientUnits="userSpaceOnUse" r="21.166656" xlink:href="#a"/><linearGradient id="j" gradientUnits="userSpaceOnUse" x1="23.814786" x2="23.814786" y1="42.0509015" y2="4.3441580001"><stop offset="0" stop-color="#ff7043"/><stop offset="1" stop-color="#ff8a65"/></linearGradient><path d="m12.402344 42.546875h3.96875v-1.984375h-3.96875zm0 0" fill="url(#b)"/><path d="m12.402344 42.546875h-3.96875v1.984375h3.96875zm0 0" fill="url(#c)"/><path d="m12.402344 42.546875h-3.96875v-1.984375h3.96875zm0 0" fill="url(#d)"/><path d="m12.402344 42.546875h3.96875v1.984375h-3.96875zm0 0" fill="url(#e)"/><path d="m35.226562 42.546875h3.96875v-1.984375h-3.96875zm0 0" fill="url(#f)"/><path d="m35.226562 42.546875h-3.96875v1.984375h3.96875zm0 0" fill="url(#g)"/><path d="m35.226562 42.546875h-3.96875v-1.984375h3.96875zm0 0" fill="url(#h)"/><path d="m35.226562 42.546875h3.96875v1.984375h-3.96875zm0 0" fill="url(#i)"/><path d="m23.816406 4.34375c2.960938 0 4.214844 9.992188 6.613282 11.734375 2.398437 1.742187 12.289062-.152344 13.203124 2.664063.914063 2.820312-8.199218 7.097656-9.117187 9.917968-.914063 2.816406 3.945313 11.636719 1.546875 13.378906-2.398438 1.742188-9.285156-5.605468-12.246094-5.605468-2.964844 0-9.851562 7.347656-12.25 5.605468-2.398437-1.742187 2.460938-10.5625 1.546875-13.378906-.914062-2.820312-10.03125-7.097656-9.117187-9.917968.917968-2.816407 10.808594-.921876 13.203125-2.664063 2.398437-1.742187 3.652343-11.734375 6.617187-11.734375zm0 0" fill="url(#j)"/><path d="m23.816406 4.34375c-2.964844 0-4.21875 9.992188-6.617187 11.734375-2.394531 1.742187-12.285157-.152344-13.203125 2.664063-.070313.214843-.082032.4375-.042969.667968.011719-.058594.023437-.113281.042969-.171875.917968-2.816406 10.808594-.921875 13.203125-2.664062 2.398437-1.742188 3.652343-11.734375 6.617187-11.734375 2.960938 0 4.214844 9.992187 6.613282 11.734375 2.398437 1.742187 12.289062-.152344 13.203124 2.664062.019532.058594.03125.113281.042969.171875.039063-.230468.027344-.453125-.042969-.667968-.914062-2.816407-10.804687-.921876-13.203124-2.664063-2.398438-1.742187-3.652344-11.734375-6.613282-11.734375zm-10.59375 25.449219c-.140625 2.820312-2.457031 7.929687-2.320312 10.675781.128906-3.015625 2.464844-8.144531 2.320312-10.675781zm21.183594 0c-.144531 2.53125 2.191406 7.660156 2.324219 10.675781.132812-2.746094-2.183594-7.855469-2.324219-10.675781zm0 0" fill="#fff" fill-opacity=".392157"/><path d="m3.949219 18.9375c-.457031 2.816406 8.269531 6.96875 9.164062 9.722656.0625.191406.097657.414063.109375.660156.019532-.429687-.011718-.800781-.109375-1.105468-.847656-2.613282-8.746093-6.480469-9.164062-9.277344zm39.730469 0c-.417969 2.796875-8.3125 6.664062-9.164063 9.277344-.097656.304687-.128906.675781-.109375 1.105468.011719-.246093.046875-.46875.109375-.660156.894531-2.753906 9.621094-6.90625 9.164063-9.722656zm-19.863282 17.050781c-2.964844 0-9.851562 7.347657-12.25 5.605469-.441406-.316406-.636718-.878906-.667968-1.59375-.035157.929688.140624 1.65625.667968 2.039062 2.398438 1.742188 9.285156-5.605468 12.25-5.605468 2.960938 0 9.847656 7.347656 12.246094 5.605468.527344-.382812.703125-1.109374.667969-2.039062-.03125.714844-.226563 1.277344-.667969 1.59375-2.398438 1.742188-9.285156-5.605469-12.246094-5.605469zm0 0" fill-opacity=".313725"/><path d="m23.816406 4.203125c-.410156 0-.789062.175781-1.128906.46875-.339844.289063-.648438.699219-.941406 1.1875-.582032.980469-1.089844 2.289063-1.582032 3.652344-.492187 1.359375-.96875 2.769531-1.464843 3.945312-.496094 1.171875-1.027344 2.105469-1.582031 2.507813-.550782.402344-1.605469.617187-2.875.726562-1.269532.113282-2.757813.128906-4.203126.175782-1.445312.046874-2.847656.128906-3.960937.378906-.554687.125-1.039063.292968-1.421875.523437-.382812.234375-.667969.539063-.792969.929688-.128906.390625-.078125.804687.09375 1.21875.171875.414062.46875.832031.84375 1.261719.753907.855468 1.839844 1.742187 2.980469 2.632812 1.140625.886719 2.335938 1.773438 3.300781 2.609375.960938.835937 1.6875 1.632813 1.898438 2.28125.210937.648437.089843 1.71875-.195313 2.960937-.289062 1.242188-.734375 2.660157-1.136718 4.050782-.402344 1.390625-.757813 2.75-.863282 3.882812-.050781.566406-.042968 1.078125.058594 1.515625.105469.4375.308594.800781.640625 1.039063.332031.242187.738281.324218 1.1875.289062.445313-.039062.933594-.1875 1.457031-.414062 1.046875-.449219 2.230469-1.210938 3.429688-2.019532 1.195312-.8125 2.410156-1.675781 3.5-2.332031 1.09375-.65625 2.074218-1.101562 2.757812-1.101562.679688 0 1.660156.445312 2.753906 1.101562 1.089844.65625 2.304688 1.519531 3.503907 2.332031 1.195312.808594 2.378906 1.570313 3.425781 2.019532.523438.226562 1.011719.375 1.457031.414062.449219.035156.855469-.046875 1.1875-.289062.332031-.238282.535157-.601563.640625-1.039063.101563-.4375.113282-.949219.058594-1.515625-.105469-1.132812-.460938-2.492187-.863281-3.882812-.402344-1.390625-.847657-2.808594-1.132813-4.050782-.289062-1.242187-.410156-2.3125-.199218-2.960937.210937-.648437.9375-1.445313 1.898437-2.28125.964844-.835937 2.160156-1.722656 3.300781-2.609375 1.140625-.890625 2.230469-1.777344 2.980469-2.632812.378906-.429688.671875-.847657.84375-1.261719.171875-.414063.222656-.828125.09375-1.21875-.125-.390625-.410156-.695313-.792969-.929688-.382812-.230469-.867187-.398437-1.421875-.523437-1.113281-.25-2.515625-.332032-3.960937-.378906-1.445313-.046876-2.933594-.0625-4.203125-.175782-1.269531-.109375-2.324219-.324218-2.875-.726562s-1.082031-1.335938-1.582031-2.507813c-.496094-1.175781-.972657-2.585937-1.464844-3.945312-.492188-1.363281-1-2.671875-1.582032-3.652344-.292968-.488281-.601562-.898437-.941406-1.1875-.339844-.292969-.714844-.46875-1.125-.46875zm0 .28125c.328125 0 .636719.136719.945313.398437.304687.261719.597656.648438.878906 1.121094.5625.949219 1.070313 2.246094 1.5625 3.601563.488281 1.355469.964844 2.769531 1.46875 3.960937.503906 1.1875 1.027344 2.15625 1.675781 2.625.644532.46875 1.726563.671875 3.015625.78125 1.285157.113282 2.777344.128906 4.21875.175782 1.441407.046874 2.832031.128906 3.90625.371093.539063.121094.996094.28125 1.339844.492188.34375.207031.570313.460937.671875.773437.101562.316406.066406.652344-.089844 1.023438-.152344.371094-.429687.769531-.792968 1.183594-.726563.828124-1.804688 1.710937-2.941407 2.597656-1.136719.886718-2.335937 1.773437-3.3125 2.621094-.976562.847656-1.734375 1.644531-1.980469 2.40625-.246093.757812-.101562 1.851562.1875 3.109374.292969 1.257813.738282 2.679688 1.140626 4.066407.398437 1.386719.75 2.734375.851562 3.832031.050781.546875.039062 1.03125-.050781 1.421875-.09375.390625-.261719.683594-.53125.878906-.269531.195313-.597657.265625-1 .234375-.398438-.03125-.863281-.171875-1.371094-.390625-1.011719-.4375-2.183594-1.1875-3.378906-1.996093-1.195313-.808594-2.410157-1.671876-3.515625-2.339844-1.109375-.664063-2.101563-1.140625-2.898438-1.140625-.800781 0-1.792968.476562-2.902344 1.140625-1.105468.667968-2.320312 1.53125-3.515624 2.339844-1.191407.808593-2.367188 1.558593-3.378907 1.996093-.507812.21875-.972656.359375-1.371093.390625-.402344.03125-.730469-.039062-1-.234375-.265626-.195312-.4375-.488281-.53125-.878906-.089844-.390625-.101563-.875-.050782-1.421875.101563-1.097656.453125-2.445312.851563-3.832031.402343-1.386719.847656-2.808594 1.140625-4.066407.289062-1.257812.433594-2.351562.1875-3.109374-.246094-.761719-1.003906-1.558594-1.980469-2.40625-.976563-.847657-2.171875-1.734376-3.3125-2.621094-1.136719-.886719-2.214844-1.769532-2.941406-2.597656-.363281-.414063-.640625-.8125-.792969-1.183594-.15625-.371094-.191406-.707032-.089844-1.023438.105469-.3125.328125-.566406.671875-.773437.34375-.210938.800781-.371094 1.339844-.492188 1.074219-.242187 2.464844-.324219 3.90625-.371093 1.441406-.046876 2.933594-.0625 4.21875-.175782 1.289063-.109375 2.371094-.3125 3.019531-.78125.644532-.46875 1.167969-1.4375 1.671875-2.625.503907-1.191406.980469-2.605468 1.46875-3.960937.492188-1.355469 1-2.652344 1.5625-3.601563.28125-.472656.578125-.859375.882813-1.121094.304687-.261718.613281-.398437.945312-.398437zm0 0" fill="#212121"/></svg>

<?xml version="1.0" encoding="UTF-8"?>
<svg xmlns="http://www.w3.org/2000/svg" xmlns:xlink="http://www.w3.org/1999/xlink" width="48pt" height="48pt" viewBox="0 0 48 48" version="1.1">
<defs>
<radialGradient id="radial0" gradientUnits="userSpaceOnUse" cx="450.908936" cy="189.579361" fx="450.908936" fy="189.579361" r="21.166656" gradientTransform="matrix(0.000000261256,-0.117199,-0.210958,-0.000000152308,51.900497,95.889139)">
<stop offset="0" style="stop-color:rgb(0%,0%,0%);stop-opacity:0.313725;"/>
<stop offset="0.222222" style="stop-color:rgb(0%,0%,0%);stop-opacity:0.27451;"/>
<stop offset="1" style="stop-color:rgb(0%,0%,0%);stop-opacity:0;"/>
</radialGradient>
<radialGradient id="radial1" gradientUnits="userSpaceOnUse" cx="450.908936" cy="189.579361" fx="450.908936" fy="189.579361" r="21.166656" gradientTransform="matrix(-0.000000261256,0.117199,0.210958,0.000000152308,-27.093432,-10.795078)">
<stop offset="0" style="stop-color:rgb(0%,0%,0%);stop-opacity:0.313725;"/>
<stop offset="0.222222" style="stop-color:rgb(0%,0%,0%);stop-opacity:0.27451;"/>
<stop offset="1" style="stop-color:rgb(0%,0%,0%);stop-opacity:0;"/>
</radialGradient>
<radialGradient id="radial2" gradientUnits="userSpaceOnUse" cx="450.908936" cy="189.579361" fx="450.908936" fy="189.579361" r="21.166656" gradientTransform="matrix(-0.000000261256,-0.117199,0.210958,-0.000000152308,-27.093432,95.889139)">
<stop offset="0" style="stop-color:rgb(0%,0%,0%);stop-opacity:0.313725;"/>
<stop offset="0.222222" style="stop-color:rgb(0%,0%,0%);stop-opacity:0.27451;"/>
<stop offset="1" style="stop-color:rgb(0%,0%,0%);stop-opacity:0;"/>
</radialGradient>
<radialGradient id="radial3" gradientUnits="userSpaceOnUse" cx="450.908936" cy="189.579361" fx="450.908936" fy="189.579361" r="21.166656" gradientTransform="matrix(0.000000261256,0.117199,-0.210958,0.000000152308,51.900494,-10.795079)">
<stop offset="0" style="stop-color:rgb(0%,0%,0%);stop-opacity:0.313725;"/>
<stop offset="0.222222" style="stop-color:rgb(0%,0%,0%);stop-opacity:0.27451;"/>
<stop offset="1" style="stop-color:rgb(0%,0%,0%);stop-opacity:0;"/>
</radialGradient>
<radialGradient id="radial4" gradientUnits="userSpaceOnUse" cx="450.908936" cy="189.579361" fx="450.908936" fy="189.579361" r="21.166656" gradientTransform="matrix(0.000000261256,-0.117199,-0.210958,-0.000000152308,74.722982,95.889139)">
<stop offset="0" style="stop-color:rgb(0%,0%,0%);stop-opacity:0.313725;"/>
<stop offset="0.222222" style="stop-color:rgb(0%,0%,0%);stop-opacity:0.27451;"/>
<stop offset="1" style="stop-color:rgb(0%,0%,0%);stop-opacity:0;"/>
</radialGradient>
<radialGradient id="radial5" gradientUnits="userSpaceOnUse" cx="450.908936" cy="189.579361" fx="450.908936" fy="189.579361" r="21.166656" gradientTransform="matrix(-0.000000261256,0.117199,0.210958,0.000000152308,-4.270947,-10.795078)">
<stop offset="0" style="stop-color:rgb(0%,0%,0%);stop-opacity:0.313725;"/>
<stop offset="0.222222" style="stop-color:rgb(0%,0%,0%);stop-opacity:0.27451;"/>
<stop offset="1" style="stop-color:rgb(0%,0%,0%);stop-opacity:0;"/>
</radialGradient>
<radialGradient id="radial6" gradientUnits="userSpaceOnUse" cx="450.908936" cy="189.579361" fx="450.908936" fy="189.579361" r="21.166656" gradientTransform="matrix(-0.000000261256,-0.117199,0.210958,-0.000000152308,-4.270947,95.889139)">
<stop offset="0" style="stop-color:rgb(0%,0%,0%);stop-opacity:0.313725;"/>
<stop offset="0.222222" style="stop-color:rgb(0%,0%,0%);stop-opacity:0.27451;"/>
<stop offset="1" style="stop-color:rgb(0%,0%,0%);stop-opacity:0;"/>
</radialGradient>
<radialGradient id="radial7" gradientUnits="userSpaceOnUse" cx="450.908936" cy="189.579361" fx="450.908936" fy="189.579361" r="21.166656" gradientTransform="matrix(0.000000261256,0.117199,-0.210958,0.000000152308,74.72298,-10.795079)">
<stop offset="0" style="stop-color:rgb(0%,0%,0%);stop-opacity:0.313725;"/>
<stop offset="0.222222" style="stop-color:rgb(0%,0%,0%);stop-opacity:0.27451;"/>
<stop offset="1" style="stop-color:rgb(0%,0%,0%);stop-opacity:0;"/>
</radialGradient>
<linearGradient id="linear0" gradientUnits="userSpaceOnUse" x1="254" y1="233.5" x2="254" y2="-168.666656" gradientTransform="matrix(0.093759,0,0,0.093759,0,20.158175)">
<stop offset="0" style="stop-color:rgb(100%,43.921569%,26.27451%);stop-opacity:1;"/>
<stop offset="1" style="stop-color:rgb(100%,54.117647%,39.607843%);stop-opacity:1;"/>
</linearGradient>
</defs>
<g id="surface1">
<path style=" stroke:none;fill-rule:nonzero;fill:url(#radial0);" d="M 12.402344 42.546875 L 16.371094 42.546875 L 16.371094 40.5625 L 12.402344 40.5625 Z M 12.402344 42.546875 "/>
<path style=" stroke:none;fill-rule:nonzero;fill:url(#radial1);" d="M 12.402344 42.546875 L 8.433594 42.546875 L 8.433594 44.53125 L 12.402344 44.53125 Z M 12.402344 42.546875 "/>
<path style=" stroke:none;fill-rule:nonzero;fill:url(#radial2);" d="M 12.402344 42.546875 L 8.433594 42.546875 L 8.433594 40.5625 L 12.402344 40.5625 Z M 12.402344 42.546875 "/>
<path style=" stroke:none;fill-rule:nonzero;fill:url(#radial3);" d="M 12.402344 42.546875 L 16.371094 42.546875 L 16.371094 44.53125 L 12.402344 44.53125 Z M 12.402344 42.546875 "/>
<path style=" stroke:none;fill-rule:nonzero;fill:url(#radial4);" d="M 35.226562 42.546875 L 39.195312 42.546875 L 39.195312 40.5625 L 35.226562 40.5625 Z M 35.226562 42.546875 "/>
<path style=" stroke:none;fill-rule:nonzero;fill:url(#radial5);" d="M 35.226562 42.546875 L 31.257812 42.546875 L 31.257812 44.53125 L 35.226562 44.53125 Z M 35.226562 42.546875 "/>
<path style=" stroke:none;fill-rule:nonzero;fill:url(#radial6);" d="M 35.226562 42.546875 L 31.257812 42.546875 L 31.257812 40.5625 L 35.226562 40.5625 Z M 35.226562 42.546875 "/>
<path style=" stroke:none;fill-rule:nonzero;fill:url(#radial7);" d="M 35.226562 42.546875 L 39.195312 42.546875 L 39.195312 44.53125 L 35.226562 44.53125 Z M 35.226562 42.546875 "/>
<path style=" stroke:none;fill-rule:nonzero;fill:url(#linear0);" d="M 23.816406 4.34375 C 26.777344 4.34375 28.03125 14.335938 30.429688 16.078125 C 32.828125 17.820312 42.71875 15.925781 43.632812 18.742188 C 44.546875 21.5625 35.433594 25.839844 34.515625 28.660156 C 33.601562 31.476562 38.460938 40.296875 36.0625 42.039062 C 33.664062 43.78125 26.777344 36.433594 23.816406 36.433594 C 20.851562 36.433594 13.964844 43.78125 11.566406 42.039062 C 9.167969 40.296875 14.027344 31.476562 13.113281 28.660156 C 12.199219 25.839844 3.082031 21.5625 3.996094 18.742188 C 4.914062 15.925781 14.804688 17.820312 17.199219 16.078125 C 19.597656 14.335938 20.851562 4.34375 23.816406 4.34375 Z M 23.816406 4.34375 "/>
<path style=" stroke:none;fill-rule:nonzero;fill:rgb(100%,100%,100%);fill-opacity:0.392157;" d="M 23.816406 4.34375 C 20.851562 4.34375 19.597656 14.335938 17.199219 16.078125 C 14.804688 17.820312 4.914062 15.925781 3.996094 18.742188 C 3.925781 18.957031 3.914062 19.179688 3.953125 19.410156 C 3.964844 19.351562 3.976562 19.296875 3.996094 19.238281 C 4.914062 16.421875 14.804688 18.316406 17.199219 16.574219 C 19.597656 14.832031 20.851562 4.839844 23.816406 4.839844 C 26.777344 4.839844 28.03125 14.832031 30.429688 16.574219 C 32.828125 18.316406 42.71875 16.421875 43.632812 19.238281 C 43.652344 19.296875 43.664062 19.351562 43.675781 19.410156 C 43.714844 19.179688 43.703125 18.957031 43.632812 18.742188 C 42.71875 15.925781 32.828125 17.820312 30.429688 16.078125 C 28.03125 14.335938 26.777344 4.34375 23.816406 4.34375 Z M 13.222656 29.792969 C 13.082031 32.613281 10.765625 37.722656 10.902344 40.46875 C 11.03125 37.453125 13.367188 32.324219 13.222656 29.792969 Z M 34.40625 29.792969 C 34.261719 32.324219 36.597656 37.453125 36.730469 40.46875 C 36.863281 37.722656 34.546875 32.613281 34.40625 29.792969 Z M 34.40625 29.792969 "/>
<path style=" stroke:none;fill-rule:nonzero;fill:rgb(0%,0%,0%);fill-opacity:0.313725;" d="M 3.949219 18.9375 C 3.492188 21.753906 12.21875 25.90625 13.113281 28.660156 C 13.175781 28.851562 13.210938 29.074219 13.222656 29.320312 C 13.242188 28.890625 13.210938 28.519531 13.113281 28.214844 C 12.265625 25.601562 4.367188 21.734375 3.949219 18.9375 Z M 43.679688 18.9375 C 43.261719 21.734375 35.367188 25.601562 34.515625 28.214844 C 34.417969 28.519531 34.386719 28.890625 34.40625 29.320312 C 34.417969 29.074219 34.453125 28.851562 34.515625 28.660156 C 35.410156 25.90625 44.136719 21.753906 43.679688 18.9375 Z M 23.816406 35.988281 C 20.851562 35.988281 13.964844 43.335938 11.566406 41.59375 C 11.125 41.277344 10.929688 40.714844 10.898438 40 C 10.863281 40.929688 11.039062 41.65625 11.566406 42.039062 C 13.964844 43.78125 20.851562 36.433594 23.816406 36.433594 C 26.777344 36.433594 33.664062 43.78125 36.0625 42.039062 C 36.589844 41.65625 36.765625 40.929688 36.730469 40 C 36.699219 40.714844 36.503906 41.277344 36.0625 41.59375 C 33.664062 43.335938 26.777344 35.988281 23.816406 35.988281 Z M 23.816406 35.988281 "/>
<path style=" stroke:none;fill-rule:nonzero;fill:rgb(12.941177%,12.941177%,12.941177%);fill-opacity:1;" d="M 23.816406 4.203125 C 23.40625 4.203125 23.027344 4.378906 22.6875 4.671875 C 22.347656 4.960938 22.039062 5.371094 21.746094 5.859375 C 21.164062 6.839844 20.65625 8.148438 20.164062 9.511719 C 19.671875 10.871094 19.195312 12.28125 18.699219 13.457031 C 18.203125 14.628906 17.671875 15.5625 17.117188 15.964844 C 16.566406 16.367188 15.511719 16.582031 14.242188 16.691406 C 12.972656 16.804688 11.484375 16.820312 10.039062 16.867188 C 8.59375 16.914062 7.191406 16.996094 6.078125 17.246094 C 5.523438 17.371094 5.039062 17.539062 4.65625 17.769531 C 4.273438 18.003906 3.988281 18.308594 3.863281 18.699219 C 3.734375 19.089844 3.785156 19.503906 3.957031 19.917969 C 4.128906 20.332031 4.425781 20.75 4.800781 21.179688 C 5.554688 22.035156 6.640625 22.921875 7.78125 23.8125 C 8.921875 24.699219 10.117188 25.585938 11.082031 26.421875 C 12.042969 27.257812 12.769531 28.054688 12.980469 28.703125 C 13.191406 29.351562 13.070312 30.421875 12.785156 31.664062 C 12.496094 32.90625 12.050781 34.324219 11.648438 35.714844 C 11.246094 37.105469 10.890625 38.464844 10.785156 39.597656 C 10.734375 40.164062 10.742188 40.675781 10.84375 41.113281 C 10.949219 41.550781 11.152344 41.914062 11.484375 42.152344 C 11.816406 42.394531 12.222656 42.476562 12.671875 42.441406 C 13.117188 42.402344 13.605469 42.253906 14.128906 42.027344 C 15.175781 41.578125 16.359375 40.816406 17.558594 40.007812 C 18.753906 39.195312 19.96875 38.332031 21.058594 37.675781 C 22.152344 37.019531 23.132812 36.574219 23.816406 36.574219 C 24.496094 36.574219 25.476562 37.019531 26.570312 37.675781 C 27.660156 38.332031 28.875 39.195312 30.074219 40.007812 C 31.269531 40.816406 32.453125 41.578125 33.5 42.027344 C 34.023438 42.253906 34.511719 42.402344 34.957031 42.441406 C 35.40625 42.476562 35.8125 42.394531 36.144531 42.152344 C 36.476562 41.914062 36.679688 41.550781 36.785156 41.113281 C 36.886719 40.675781 36.898438 40.164062 36.84375 39.597656 C 36.738281 38.464844 36.382812 37.105469 35.980469 35.714844 C 35.578125 34.324219 35.132812 32.90625 34.847656 31.664062 C 34.558594 30.421875 34.4375 29.351562 34.648438 28.703125 C 34.859375 28.054688 35.585938 27.257812 36.546875 26.421875 C 37.511719 25.585938 38.707031 24.699219 39.847656 23.8125 C 40.988281 22.921875 42.078125 22.035156 42.828125 21.179688 C 43.207031 20.75 43.5 20.332031 43.671875 19.917969 C 43.84375 19.503906 43.894531 19.089844 43.765625 18.699219 C 43.640625 18.308594 43.355469 18.003906 42.972656 17.769531 C 42.589844 17.539062 42.105469 17.371094 41.550781 17.246094 C 40.4375 16.996094 39.035156 16.914062 37.589844 16.867188 C 36.144531 16.820312 34.65625 16.804688 33.386719 16.691406 C 32.117188 16.582031 31.0625 16.367188 30.511719 15.964844 C 29.960938 15.5625 29.429688 14.628906 28.929688 13.457031 C 28.433594 12.28125 27.957031 10.871094 27.464844 9.511719 C 26.972656 8.148438 26.464844 6.839844 25.882812 5.859375 C 25.589844 5.371094 25.28125 4.960938 24.941406 4.671875 C 24.601562 4.378906 24.226562 4.203125 23.816406 4.203125 Z M 23.816406 4.484375 C 24.144531 4.484375 24.453125 4.621094 24.761719 4.882812 C 25.066406 5.144531 25.359375 5.53125 25.640625 6.003906 C 26.203125 6.953125 26.710938 8.25 27.203125 9.605469 C 27.691406 10.960938 28.167969 12.375 28.671875 13.566406 C 29.175781 14.753906 29.699219 15.722656 30.347656 16.191406 C 30.992188 16.660156 32.074219 16.863281 33.363281 16.972656 C 34.648438 17.085938 36.140625 17.101562 37.582031 17.148438 C 39.023438 17.195312 40.414062 17.277344 41.488281 17.519531 C 42.027344 17.640625 42.484375 17.800781 42.828125 18.011719 C 43.171875 18.21875 43.398438 18.472656 43.5 18.785156 C 43.601562 19.101562 43.566406 19.4375 43.410156 19.808594 C 43.257812 20.179688 42.980469 20.578125 42.617188 20.992188 C 41.890625 21.820312 40.8125 22.703125 39.675781 23.589844 C 38.539062 24.476562 37.339844 25.363281 36.363281 26.210938 C 35.386719 27.058594 34.628906 27.855469 34.382812 28.617188 C 34.136719 29.375 34.28125 30.46875 34.570312 31.726562 C 34.863281 32.984375 35.308594 34.40625 35.710938 35.792969 C 36.109375 37.179688 36.460938 38.527344 36.5625 39.625 C 36.613281 40.171875 36.601562 40.65625 36.511719 41.046875 C 36.417969 41.4375 36.25 41.730469 35.980469 41.925781 C 35.710938 42.121094 35.382812 42.191406 34.980469 42.160156 C 34.582031 42.128906 34.117188 41.988281 33.609375 41.769531 C 32.597656 41.332031 31.425781 40.582031 30.230469 39.773438 C 29.035156 38.964844 27.820312 38.101562 26.714844 37.433594 C 25.605469 36.769531 24.613281 36.292969 23.816406 36.292969 C 23.015625 36.292969 22.023438 36.769531 20.914062 37.433594 C 19.808594 38.101562 18.59375 38.964844 17.398438 39.773438 C 16.207031 40.582031 15.03125 41.332031 14.019531 41.769531 C 13.511719 41.988281 13.046875 42.128906 12.648438 42.160156 C 12.246094 42.191406 11.917969 42.121094 11.648438 41.925781 C 11.382812 41.730469 11.210938 41.4375 11.117188 41.046875 C 11.027344 40.65625 11.015625 40.171875 11.066406 39.625 C 11.167969 38.527344 11.519531 37.179688 11.917969 35.792969 C 12.320312 34.40625 12.765625 32.984375 13.058594 31.726562 C 13.347656 30.46875 13.492188 29.375 13.246094 28.617188 C 13 27.855469 12.242188 27.058594 11.265625 26.210938 C 10.289062 25.363281 9.09375 24.476562 7.953125 23.589844 C 6.816406 22.703125 5.738281 21.820312 5.011719 20.992188 C 4.648438 20.578125 4.371094 20.179688 4.21875 19.808594 C 4.0625 19.4375 4.027344 19.101562 4.128906 18.785156 C 4.234375 18.472656 4.457031 18.21875 4.800781 18.011719 C 5.144531 17.800781 5.601562 17.640625 6.140625 17.519531 C 7.214844 17.277344 8.605469 17.195312 10.046875 17.148438 C 11.488281 17.101562 12.980469 17.085938 14.265625 16.972656 C 15.554688 16.863281 16.636719 16.660156 17.285156 16.191406 C 17.929688 15.722656 18.453125 14.753906 18.957031 13.566406 C 19.460938 12.375 19.9375 10.960938 20.425781 9.605469 C 20.917969 8.25 21.425781 6.953125 21.988281 6.003906 C 22.269531 5.53125 22.566406 5.144531 22.871094 4.882812 C 23.175781 4.621094 23.484375 4.484375 23.816406 4.484375 Z M 23.816406 4.484375 "/>
</g>
</svg>
